svg/misc/walk.svg

<svg width="318" height="512" viewBox="0 0 318 512" fill="none" xmlns="http://www.w3.org/2000/svg">
<g clip-path="url(#clip0)">
<path d="M199.363 112C230.291 112 255.363 86.9279 255.363 56C255.363 25.0721 230.291 0 199.363 0C168.435 0 143.363 25.0721 143.363 56C143.363 86.9279 168.435 112 199.363 112Z" fill="black"/>
<path d="M93.8976 213.433L120.387 202.913L102.282 285.54C101.207 290.447 102.499 295.575 105.771 299.386L106.051 299.712L159.363 360L159.196 360.517L159.42 360.057L192.236 404.301C194.692 407.611 196.485 411.366 197.516 415.357L216.004 486.891C220.454 504.109 238.209 514.364 255.388 509.761C272.257 505.241 282.504 487.999 278.266 471.056L256.943 385.804C255.832 381.36 253.78 377.207 250.925 373.625L196.545 305.385L213.404 239.637L223.115 265.385C225.238 271.014 228.904 275.931 233.694 279.571L267.606 305.344C281.632 316.004 301.646 313.309 312.368 299.331C323.151 285.274 320.472 265.118 306.378 254.384L281.271 235.261C276.748 231.816 273.224 227.228 271.063 221.969L249.382 169.221C246.576 162.395 241.476 157.185 235.329 154.135L235.363 154C235.363 154 209.667 136.564 190.863 131.5C171.31 126.235 140.224 129.559 136.693 129.962C132.753 129.948 128.746 130.666 124.859 132.2L51.9927 160.962C50.2734 161.641 48.7759 162.783 47.6663 164.261L14.5317 208.407C3.93868 222.521 6.79748 242.566 20.8885 253.189C35.0007 263.828 55.0925 261.033 65.7313 246.921L87.0274 218.672C88.7938 216.329 91.1705 214.517 93.8976 213.433Z" fill="black"/>
<path d="M68.8222 394.263L90.0811 344.659L141.731 396.309L124.801 431.004C123.188 434.31 121.017 437.313 118.383 439.881L54.4707 502.205C41.9669 514.398 21.9105 514.228 9.51029 501.93C-3.11695 489.407 -3.19847 468.903 9.43668 456.387L61.929 404.393C64.8577 401.492 67.1983 398.052 68.8222 394.263Z" fill="black"/>
</g>
<defs>
<clipPath id="clip0">
<rect width="318" height="512" fill="white"/>
</clipPath>
</defs>
</svg>

<svg width="318" height="512" viewBox="0 0 318 512" version="1.1" xmlns="http://www.w3.org/2000/svg"><path fill="currentColor" d="M68.822,394.263l21.259,-49.604l51.65,51.65l-16.93,34.695c-1.613,3.306 -3.784,6.309 -6.418,8.877l-63.912,62.324c-12.504,12.193 -32.56,12.023 -44.961,-0.275c-12.627,-12.523 -12.708,-33.027 -0.073,-45.543l52.492,-51.994c2.929,-2.901 5.269,-6.341 6.893,-10.13Zm25.076,-180.83l26.489,-10.52l-18.105,82.627c-1.075,4.907 0.217,10.035 3.489,13.846l0.28,0.326l53.312,60.288l-0.167,0.517l0.224,-0.46l32.816,44.244c2.456,3.31 4.249,7.065 5.28,11.056l18.488,71.534c4.45,17.218 22.205,27.473 39.384,22.87c16.869,-4.52 27.116,-21.762 22.878,-38.705l-21.323,-85.252c-1.111,-4.444 -3.163,-8.597 -6.018,-12.179l-54.38,-68.24l16.859,-65.748l9.711,25.748c2.123,5.629 5.789,10.546 10.579,14.186l33.912,25.773c14.026,10.66 34.04,7.965 44.762,-6.013c10.783,-14.057 8.104,-34.213 -5.99,-44.947l-25.107,-19.123c-4.523,-3.445 -8.047,-8.033 -10.208,-13.292l-21.681,-52.748c-2.806,-6.826 -7.906,-12.036 -14.053,-15.086l0.034,-0.135c0,0 -25.696,-17.436 -44.5,-22.5c-19.553,-5.265 -50.639,-1.941 -54.17,-1.538c-3.94,-0.014 -7.947,0.704 -11.834,2.238l-72.866,28.762c-1.72,0.679 -3.217,1.821 -4.327,3.299l-33.134,44.146c-10.593,14.114 -7.735,34.159 6.357,44.782c14.112,10.639 34.204,7.844 44.842,-6.268l21.296,-28.249c1.767,-2.343 4.144,-4.155 6.871,-5.239Zm105.465,-101.433c30.928,0 56,-25.072 56,-56c0,-30.928 -25.072,-56 -56,-56c-30.928,0 -56,25.072 -56,56c0,30.928 25.072,56 56,56Z"></path></svg>
